proprietary/assets/icons/functioneel/publicatie.svg

<svg height="48" width="48" xmlns="http://www.w3.org/2000/svg"><path d="m38 4h-17.199c-.602 0-1 .199-1.402.602l-10.797 10.796c-.402.402-.602.801-.602 1.402v25.2c0 1.199.801 2 2 2h28c1.199 0 2-.801 2-2v-36c0-1.199-.801-2-2-2zm-2 36h-24v-22h8c1.199 0 2-.801 2-2v-8h14zm-20-18h16v2h-16zm0 0"/><path d="m16 28h16v2h-16zm0 6h16v2h-16zm0 0"/></svg>

<svg xmlns="http://www.w3.org/2000/svg" width="48" height="48" fill="rgb(0%,0%,0%)" xmlns:v="https://vecta.io/nano"><path d="M38 4H20.801c-.602 0-1 .199-1.402.602L8.602 15.398C8.2 15.8 8 16.199 8 16.8V42c0 1.199.801 2 2 2h28c1.199 0 2-.801 2-2V6c0-1.199-.801-2-2-2zm-2 36H12V18h8c1.199 0 2-.801 2-2V8h14zM16 22h16v2H16zm0 0"/><path d="M16 28h16v2H16zm0 6h16v2H16zm0 0"/></svg>
